X:35
T:Queen’s March. JJo.035
S:J.Jones MS,1801,N.Shrops.
A:N Shropshire
Z:Neil Brookes 2006
M:4/4
L:1/8
Q:1/2=70
K:C
c4G4|FEDC E2G2|c2ced2de|fedc cBAG|
c4G4|FEDC E2G2|c2ceg2fe|d2d>dd4::!
e2d2cBAG|e2c2e2c2|f2d2cBAG|g2e2g2e2|
“^dcr in MS”c4defd|cBAG g2f2|e2efd2de|c2c>cc4:|

